X:1
T: Nothing can sadden us
C:
R:Jig
Q:180
K:A
M:6/8
L:1/16
|:c6 B2A2B2|A2B2A2 A2c2e2|f2g2a2 e4c2|d2B2B2 B2e2d2|
c6 B2A2B2|A2B2A2 A2c2e2|f2g2a2 e4d2|c2A2A2 A6|
c2d2e2 e2e2e2|e2f2=g2 =f2^g2a2|e2d2c2 c2B2A2|G2B2B2 B2c2d2|
c2d2e2 e2e2e2|e2f2=g2 =f2^g2a2|e2d2c2 c2d2e2|c2A2A2 A6:|
